src/renderer/assets/icon/titleBarClose-active-icon.svg

<?xml version="1.0" encoding="UTF-8"?>
<svg viewBox="0 0 24 24" version="1.1" xmlns="http://www.w3.org/2000/svg" xmlns:xlink="http://www.w3.org/1999/xlink">
    <defs></defs>
    <g id="macos-close-mousedown-2x" stroke="none" stroke-width="1" fill="none" fill-rule="evenodd">
        <circle id="Path" stroke="#808086" fill="#848484" cx="12" cy="12" r="11.5"></circle>
        <path d="M14.4041631,12 L17.6342269,15.2300637 C18.1153528,15.7111897 18.1153528,16.4912489 17.6342269,16.9723749 L16.9723749,17.6342269 C16.4912489,18.1153528 15.7111897,18.1153528 15.2300637,17.6342269 L12,14.4041631 L8.76993626,17.6342269 C8.28881033,18.1153528 7.50875108,18.1153528 7.02762515,17.6342269 L6.36577313,16.9723749 C5.88464721,16.4912489 5.88464721,15.7111897 6.36577313,15.2300637 L9.59583688,12 L6.36577313,8.76993626 C5.88464721,8.28881033 5.88464721,7.50875108 6.36577313,7.02762515 L7.02762515,6.36577313 C7.50875108,5.88464721 8.28881033,5.88464721 8.76993626,6.36577313 L12,9.59583688 L15.2300637,6.36577313 C15.7111897,5.88464721 16.4912489,5.88464721 16.9723749,6.36577313 L17.6342269,7.02762515 C18.1153528,7.50875108 18.1153528,8.28881033 17.6342269,8.76993626 L14.4041631,12 Z" id="close" fill="#3B3B40"></path>
    </g>
</svg>

<svg viewBox="0 0 24 24" xmlns="http://www.w3.org/2000/svg">
    <g fill="none" fill-rule="evenodd">
        <circle stroke="#808086" fill="#848484" cx="12" cy="12" r="11.5"/>
        <path d="M14.404 12l3.23 3.23a1.232 1.232 0 010 1.742l-.662.662a1.232 1.232 0 01-1.742 0L12 14.404l-3.23 3.23a1.232 1.232 0 01-1.742 0l-.662-.662a1.232 1.232 0 010-1.742L9.596 12l-3.23-3.23a1.232 1.232 0 010-1.742l.662-.662a1.232 1.232 0 011.742 0L12 9.596l3.23-3.23a1.232 1.232 0 011.742 0l.662.662a1.232 1.232 0 010 1.742L14.404 12z" fill="#3B3B40"/>
    </g>
</svg>
